svg/u1fae2.svg

<svg viewBox="0 0 128 128" xmlns="http://www.w3.org/2000/svg" xmlns:xlink="http://www.w3.org/1999/xlink">
  <radialGradient id="face_1_" cx="63.6" cy="-7019.4609" gradientTransform="matrix(1 0 0 -1 0 -6956.5605)" gradientUnits="userSpaceOnUse" r="56.9597">
    <stop offset="0.5" stop-color="#FDE030"/>
    <stop offset="0.9188" stop-color="#F7C02B"/>
    <stop offset="1" stop-color="#F4A223"/>
  </radialGradient>
  <path id="face_44_" d="M63.6,118.8c-27.9,0-58-17.5-58-55.9S35.7,7,63.6,7c15.5,0,29.8,5.1,40.4,14.4 c11.5,10.2,17.6,24.6,17.6,41.5s-6.1,31.2-17.6,41.4C93.4,113.6,79,118.8,63.6,118.8z" fill="url(#face_1_)"/>
  <linearGradient id="face_2_" gradientTransform="matrix(1 0 0 -1 0 -6956.5605)" gradientUnits="userSpaceOnUse" x1="63.6" x2="63.6" y1="-7075.3608" y2="-6963.5605">
    <stop offset="0.1579" stop-color="#F4A223"/>
    <stop offset="0.333" stop-color="#F7C02B"/>
    <stop offset="0.8071" stop-color="#FDE030" stop-opacity="0"/>
  </linearGradient>
  <path id="face_65_" d="M63.6,118.8c-27.9,0-58-17.5-58-55.9S35.7,7,63.6,7c15.5,0,29.8,5.1,40.4,14.4 c11.5,10.2,17.6,24.6,17.6,41.5s-6.1,31.2-17.6,41.4C93.4,113.6,79,118.8,63.6,118.8z" fill="url(#face_2_)"/>
  <path d="M111.49,29.67c5.33,8.6,8.11,18.84,8.11,30.23c0,16.9-6.1,31.2-17.6,41.4 c-10.6,9.3-25,14.5-40.4,14.5c-18.06,0-37.04-7.35-48.18-22.94c10.76,17.66,30.99,25.94,50.18,25.94c15.4,0,29.8-5.2,40.4-14.5 c11.5-10.2,17.6-24.5,17.6-41.4C121.6,50.16,118.13,38.84,111.49,29.67z" fill="#EB8F00"/>
  <g>
    <path d="M44.04,40.94L44.04,40.94c-4.19,0-8,3.54-8,9.42s3.81,9.42,8,9.42l0,0c4.19,0,8-3.54,8-9.42 S48.24,40.94,44.04,40.94z" fill="#422B0D"/>
    <g id="peepers_146_">
      <path d="M43.65,44.87L43.65,44.87c-1.03-0.72-2.58-0.49-3.58,0.95c-1,1.45-0.67,2.97,0.36,3.69l0,0 c1.03,0.72,2.58,0.49,3.58-0.95S44.69,45.59,43.65,44.87z" fill="#896024"/>
    </g>
    <path d="M82.4,40.94L82.4,40.94c-4.19,0-8,3.54-8,9.42s3.81,9.42,8,9.42l0,0c4.19,0,8-3.54,8-9.42 S86.59,40.94,82.4,40.94z" fill="#422B0D"/>
    <g id="peepers_145_">
      <path d="M82.01,44.87L82.01,44.87c-1.03-0.72-2.58-0.49-3.58,0.95c-1,1.45-0.67,2.97,0.36,3.69l0,0 c1.03,0.72,2.58,0.49,3.58-0.95C83.38,47.11,83.04,45.59,82.01,44.87z" fill="#896024"/>
    </g>
  </g>
  <g id="palm">
    <radialGradient id="prop-2_1_" cx="64.5261" cy="-4876.936" gradientTransform="matrix(1 0 0 -1 0 -4800.5605)" gradientUnits="userSpaceOnUse" r="65.3306">
      <stop offset="0.27" stop-color="#FFF176"/>
      <stop offset="1" stop-color="#FFC400"/>
    </radialGradient>
    <path id="prop-2" d="M96.32,81.86c-2.22-3.18-8,0.07-8,0.07s3-2.61,5.5-5c1.6-1.53,3-4.79,1.69-7 s-5.12-2.07-6.99-0.92l-7.33,4.5c0,0,2.75-1.2,3.58-5.92c0.52-1.91-0.6-3.88-2.51-4.4c-0.36-0.1-0.73-0.14-1.1-0.12 c-1.73,0.15-3.38,0.79-4.77,1.84c-5.3,3.76-19.45,13.35-22.62,13.1c-1.23-0.1,0.35-3.89,2.63-6.07s4.85-7.2,3.4-10.65 c-0.85-2-4.26-3.44-5.49-1.51c-0.93,1.42-4.51,6.02-8.07,9.48c-3.56,3.47-9.42,11.22-9.93,11.98c-3.73,5.52-10.25,18.06-2.97,29.6 c6.44,10.22,21.14,10.7,28.67,8c14.39-5.1,27.64-14.9,27.89-15.1c2.62-2.08,5-5.13,3.92-7.91c-1.33-3.44-5.74-1.4-5.74-1.4 c2.55-1.55,4.84-3.5,6.77-5.78C96.68,86.29,97.81,84.01,96.32,81.86z" fill="url(#prop-2_1_)"/>
    <path d="M96.03,89.56c1.18-1.52,3.94-5.07,1.52-8.56c-0.87-1.23-2.08-2-3.49-2.24 c2.37-1.97,4.91-6.57,2.2-10.35c-1.01-1.41-2.94-2.51-6.01-1.8c-2.21,0.51-4.19,2.14-4.19,2.14c0.07-0.27,1.81-5.18-4.2-6.4 c-2.42-0.49-5.17,1.11-6.75,2.3c-9.13,6.48-20.13,12.4-19.73,11.55c1.42-2.82,3.82-4.78,5.12-7.35c1.43-2.84,1.23-5.01,0.84-6.87 c-0.64-3-3.35-4.94-6.09-4.09c-2.41,0.75-3.17,3.83-7.49,8.5c-7,7.56-17.46,13.63-17.46,29.57c0,0,1.71-9.25,6.01-14.74 c4.05-5.16,9.97-10.13,13.65-14.19c3.5-3.85,3.51-5.16,4.67-6.14c2.02-1.7,5.12-0.51,4.81,3.19c-0.36,4.45-2.23,5.95-4.26,8.49 c-1.25,1.57-2.58,3.42-3.14,4.74c-0.36,0.84,0.33,1.74,1.24,1.62c6.13-0.81,20.37-10.55,24-12.84c1.16-0.88,2.54-1.41,3.93-1.54 c2.74-0.39,2.6,3.45,2.6,3.45c-0.77,3.15-1.26,3.15-4.4,5.79c-2.23,1.87-10.12,7.61-15.24,10.19c0,0,0.09,1.17,2.46,0.5 s11.71-6.54,16.74-10.57c0,0,6.52-5.57,9.3-4.79c2.82,0.8,2.57,2.76,1.68,4.62c-0.88,1.86-3.19,4.1-6.85,6.89 c-6.58,5-16.77,11.82-16.77,11.82s0.21,1,2.19,0.43c4.03-1.17,16.61-10.49,16.61-10.49c0.98-0.76,4.26-1.81,5.54,0.34 c0.69,1.01,0.53,2.66-1.89,5.52c-2.88,3.43-11.67,9.41-19.31,13.75c0,0,0.58,0.98,2.69,0.26s10.83-6.03,12.21-6.49 c1.38-0.46,2.76-0.9,3.68,0.73c1.09,2.25-0.37,4.03-3.26,6.33c-0.12,0.09-13.88,10.85-28.19,15.69c-7.56,2.56-16.01,1.24-25.7-5.09 c5.88,7.1,18.72,10.27,27.43,7.09c14.65-5.36,28.21-15.25,28.32-15.34c2.1-1.67,6.47-5.13,4.06-10.08 c-0.63-1.11-1.47-1.8-2.39-2.19C93.91,91.89,95.01,90.77,96.03,89.56z" fill="#EB8F00"/>
  </g>
</svg>

<svg viewBox="0 0 128 128" xmlns="http://www.w3.org/2000/svg">
  <defs>
    <radialGradient id="face_1_" cx="63.6" cy="-62.9004" gradientTransform="matrix(1 0 0 -1 0 0)" gradientUnits="userSpaceOnUse" r="56.9597">
      <stop offset="0.5" stop-color="#FDE030"/>
      <stop offset="0.9188" stop-color="#F7C02B"/>
      <stop offset="1" stop-color="#F4A223"/>
    </radialGradient>
    <linearGradient id="face_2_" gradientTransform="matrix(1 0 0 -1 0 0)" gradientUnits="userSpaceOnUse" x1="63.6" x2="63.6" y1="-118.8003" y2="-7">
      <stop offset="0.1579" stop-color="#F4A223"/>
      <stop offset="0.333" stop-color="#F7C02B"/>
      <stop offset="0.8071" stop-color="#FDE030" stop-opacity="0"/>
    </linearGradient>
    <radialGradient id="prop-2_1_" cx="64.5261" cy="-76.3755" gradientTransform="matrix(1 0 0 -1 0 0)" gradientUnits="userSpaceOnUse" r="65.3306">
      <stop offset="0.27" stop-color="#FFF176"/>
      <stop offset="1" stop-color="#FFC400"/>
    </radialGradient>
  </defs>
  <path id="face_44_" d="M63.6,118.8 C35.7,118.8 5.6,101.3 5.6,62.9 C5.6,24.5 35.7,7 63.6,7 C79.1,7 93.4,12.1 104,21.4 C115.5,31.6 121.6,46 121.6,62.9 C121.6,79.8 115.5,94.1 104,104.3 C93.4,113.6 79,118.8 63.6,118.8 Z" fill="url(#face_1_)"/>
  <path id="face_65_" d="M63.6,118.8 C35.7,118.8 5.6,101.3 5.6,62.9 C5.6,24.5 35.7,7 63.6,7 C79.1,7 93.4,12.1 104,21.4 C115.5,31.6 121.6,46 121.6,62.9 C121.6,79.8 115.5,94.1 104,104.3 C93.4,113.6 79,118.8 63.6,118.8 Z" fill="url(#face_2_)"/>
  <path d="M111.49,29.67 C116.82,38.27 119.6,48.51 119.6,59.9 C119.6,76.8 113.5,91.1 102,101.3 C91.4,110.6 77,115.8 61.6,115.8 C43.54,115.8 24.56,108.45 13.42,92.86 C24.18,110.52 44.41,118.8 63.6,118.8 C79,118.8 93.4,113.6 104,104.3 C115.5,94.1 121.6,79.8 121.6,62.9 C121.6,50.16 118.13,38.84 111.49,29.67 Z" fill="#EB8F00"/>
  <path d="M44.04,40.94 L44.04,40.94 C39.85,40.94 36.04,44.48 36.04,50.36 C36.04,56.24 39.85,59.78 44.04,59.78 L44.04,59.78 C48.23,59.78 52.04,56.24 52.04,50.36 C52.04,44.48 48.24,40.94 44.04,40.94 Z" fill="#422B0D"/>
  <path d="M43.65,44.87 L43.65,44.87 C42.62,44.15 41.07,44.38 40.07,45.82 C39.07,47.27 39.4,48.79 40.43,49.51 L40.43,49.51 C41.46,50.23 43.01,50 44.01,48.56 C45.01,47.12 44.69,45.59 43.65,44.87 Z" fill="#896024"/>
  <path d="M82.4,40.94 L82.4,40.94 C78.21,40.94 74.4,44.48 74.4,50.36 C74.4,56.24 78.21,59.78 82.4,59.78 L82.4,59.78 C86.59,59.78 90.4,56.24 90.4,50.36 C90.4,44.48 86.59,40.94 82.4,40.94 Z" fill="#422B0D"/>
  <path d="M82.01,44.87 L82.01,44.87 C80.98,44.15 79.43,44.38 78.43,45.82 C77.43,47.27 77.76,48.79 78.79,49.51 L78.79,49.51 C79.82,50.23 81.37,50 82.37,48.56 C83.38,47.11 83.04,45.59 82.01,44.87 Z" fill="#896024"/>
  <path id="prop-2" d="M96.32,81.86 C94.1,78.68 88.32,81.93 88.32,81.93 C88.32,81.93 91.32,79.32 93.82,76.93 C95.42,75.4 96.82,72.14 95.51,69.93 C94.2,67.72 90.39,67.86 88.52,69.01 L81.19,73.51 C81.19,73.51 83.94,72.31 84.77,67.59 C85.29,65.68 84.17,63.71 82.26,63.19 C81.9,63.09 81.53,63.05 81.16,63.07 C79.43,63.22 77.78,63.86 76.39,64.91 C71.09,68.67 56.94,78.26 53.77,78.01 C52.54,77.91 54.12,74.12 56.4,71.94 C58.68,69.76 61.25,64.74 59.8,61.29 C58.95,59.29 55.54,57.85 54.31,59.78 C53.38,61.2 49.8,65.8 46.24,69.26 C42.68,72.73 36.82,80.48 36.31,81.24 C32.58,86.76 26.06,99.3 33.34,110.84 C39.78,121.06 54.48,121.54 62.01,118.84 C76.4,113.74 89.65,103.94 89.9,103.74 C92.52,101.66 94.9,98.61 93.82,95.83 C92.49,92.39 88.08,94.43 88.08,94.43 C90.63,92.88 92.92,90.93 94.85,88.65 C96.68,86.29 97.81,84.01 96.32,81.86 Z" fill="url(#prop-2_1_)"/>
  <path d="M96.03,89.56 C97.21,88.04 99.97,84.49 97.55,81 C96.68,79.77 95.47,79 94.06,78.76 C96.43,76.79 98.97,72.19 96.26,68.41 C95.25,67 93.32,65.9 90.25,66.61 C88.04,67.12 86.06,68.75 86.06,68.75 C86.13,68.48 87.87,63.57 81.86,62.35 C79.44,61.86 76.69,63.46 75.11,64.65 C65.98,71.13 54.98,77.05 55.38,76.2 C56.8,73.38 59.2,71.42 60.5,68.85 C61.93,66.01 61.73,63.84 61.34,61.98 C60.7,58.98 57.99,57.04 55.25,57.89 C52.84,58.64 52.08,61.72 47.76,66.39 C40.76,73.95 30.3,80.02 30.3,95.96 C30.3,95.96 32.01,86.71 36.31,81.22 C40.36,76.06 46.28,71.09 49.96,67.03 C53.46,63.18 53.47,61.87 54.63,60.89 C56.65,59.19 59.75,60.38 59.44,64.08 C59.08,68.53 57.21,70.03 55.18,72.57 C53.93,74.14 52.6,75.99 52.04,77.31 C51.68,78.15 52.37,79.05 53.28,78.93 C59.41,78.12 73.65,68.38 77.28,66.09 C78.44,65.21 79.82,64.68 81.21,64.55 C83.95,64.16 83.81,68 83.81,68 C83.04,71.15 82.55,71.15 79.41,73.79 C77.18,75.66 69.29,81.4 64.17,83.98 C64.17,83.98 64.26,85.15 66.63,84.48 C69,83.81 78.34,77.94 83.37,73.91 C83.37,73.91 89.89,68.34 92.67,69.12 C95.49,69.92 95.24,71.88 94.35,73.74 C93.47,75.6 91.16,77.84 87.5,80.63 C80.92,85.63 70.73,92.45 70.73,92.45 C70.73,92.45 70.94,93.45 72.92,92.88 C76.95,91.71 89.53,82.39 89.53,82.39 C90.51,81.63 93.79,80.58 95.07,82.73 C95.76,83.74 95.6,85.39 93.18,88.25 C90.3,91.68 81.51,97.66 73.87,102 C73.87,102 74.45,102.98 76.56,102.26 C78.67,101.54 87.39,96.23 88.77,95.77 C90.15,95.31 91.53,94.87 92.45,96.5 C93.54,98.75 92.08,100.53 89.19,102.83 C89.07,102.92 75.31,113.68 61,118.52 C53.44,121.08 44.99,119.76 35.3,113.43 C41.18,120.53 54.02,123.7 62.73,120.52 C77.38,115.16 90.94,105.27 91.05,105.18 C93.15,103.51 97.52,100.05 95.11,95.1 C94.48,93.99 93.64,93.3 92.72,92.91 C93.91,91.89 95.01,90.77 96.03,89.56 Z" fill="#EB8F00"/>
</svg>
